X: 36423
T: Seanamhac Tube Station
R: jig
M: 6/8
K: Adorian
|:AGE EDE|ABd e3|edB dBG|AGE DEG|
AGE EDE|ABd e3|edB dBG|1 A2B c2B:|2 A3 ABd||
e3 edB|d3 dBd|edB dBG|AGE DEG|
e3 edB|d3 age|edB dBG|A3 ABd|
e3 edB|d3 dBd|edB dBG|AGE DEG|
AGE AGE|AGE ABd|edB dBG|A2B c2B||

